X:103
T:Dream Q. S.
S:American Veteran Fifer #103
C:By W.M. Larrbee Binghamton, N.Y.
M:2/4
L:1/16
Q:1/8=180
K:G 
%%MIDI program 72
%%MIDI transpose 8
%%MIDI ratio 3 1
d2 | gfgd B2BA | GFGB D2DG | GDGB A2Ac | BGBc d2ef |
gfgd BcBA | GFGB D2DG | GDGB ADFA | G2B2G2 :|
|: D2 | GDGB A2Ac | BGBc d2ef | gfgg agfe | ddcd e2f2 |
gfgd B2BA | GFGB D2DG | GDGB ADFA | G2GF G2 :|


